app/assets/images/Contenido/Odin/No fijar.svg

<svg fill="none" height="29" viewBox="0 0 29 29" width="29" xmlns="http://www.w3.org/2000/svg"><path d="m23.6163 8.97122-3.5583-3.56326c-2.4342-2.43796-3.6507-3.65453-4.9585-3.3663-1.3066.28823-1.8987 1.90593-3.084 5.14013l-.8022 2.18935c-.3158.86226-.4743 1.29346-.759 1.62736-.1275.1498-.2726.2837-.4323.3987-.35545.2558-.79738.3771-1.68125.6209-1.99351.55-2.99147.825-3.36735 1.4772-.1626.2822-.24716.6026-.24499.9283.00481.753.73616 1.4844 2.19767 2.9484l1.69928 1.7005-5.37527 5.3804c-.16379.1736-.25347.4042-.24999.6429s.09984.4667.26863.6355.39671.2651.63539.2686.46932-.0862.64295-.25l5.37407-5.3803 1.76056 1.763c1.4723 1.4724 2.2085 2.2098 2.9662 2.2098.3183 0 .6317-.0817.9091-.2402.6581-.3759.9343-1.3799 1.4879-3.3891.2426-.8828.3639-1.3235.6185-1.6802.1117-.1549.2414-.2966.3867-.4227.3303-.2859.759-.4468 1.6152-.7687l2.2145-.8322c3.1992-1.201 4.7988-1.8027 5.0798-3.1057.2823-1.3043-.9259-2.5136-3.3433-4.93238z" fill="#09921f"/><path d="m2.73744 2.26256 23.99996 24.00004" stroke="#09921f" stroke-width="3.5"/><g stroke="#fff" stroke-width="1.5"><path d="m3.53033 1.46967 23.99997 24.00003"/><path d="m.53033 3.46967 24.99997 25.00003"/></g></svg>

<svg width="29" height="29" viewBox="0 0 29 29" fill="none" xmlns="http://www.w3.org/2000/svg">
<path d="M23.6163 8.97122L20.058 5.40796C17.6238 2.97 16.4073 1.75343 15.0995 2.04166C13.7929 2.32989 13.2008 3.94759 12.0155 7.18179L11.2133 9.37114C10.8975 10.2334 10.739 10.6646 10.4543 10.9985C10.3268 11.1483 10.1817 11.2822 10.022 11.3972C9.66655 11.653 9.22462 11.7743 8.34075 12.0181C6.34724 12.5681 5.34928 12.8431 4.9734 13.4953C4.8108 13.7775 4.72624 14.0979 4.72841 14.4236C4.73322 15.1766 5.46457 15.908 6.92608 17.372L8.62536 19.0725L3.25009 24.4529C3.0863 24.6265 2.99662 24.8571 3.0001 25.0958C3.00358 25.3345 3.09994 25.5625 3.26873 25.7313C3.43752 25.9001 3.66544 25.9964 3.90412 25.9999C4.1428 26.0034 4.37344 25.9137 4.54707 25.7499L9.92114 20.3696L11.6817 22.1326C13.154 23.605 13.8902 24.3424 14.6479 24.3424C14.9662 24.3424 15.2796 24.2607 15.557 24.1022C16.2151 23.7263 16.4913 22.7223 17.0449 20.7131C17.2875 19.8303 17.4088 19.3896 17.6634 19.0329C17.7751 18.878 17.9048 18.7363 18.0501 18.6102C18.3804 18.3243 18.8091 18.1634 19.6653 17.8415L21.8798 17.0093C25.079 15.8083 26.6786 15.2066 26.9596 13.9036C27.2419 12.5993 26.0337 11.39 23.6163 8.97122Z" fill="#09921F"/>
<line x1="2.73744" y1="2.26256" x2="26.7374" y2="26.2626" stroke="#09921F" stroke-width="3.5"/>
<line x1="3.53033" y1="1.46967" x2="27.5303" y2="25.4697" stroke="white" stroke-width="1.5"/>
<line x1="0.53033" y1="3.46967" x2="25.5303" y2="28.4697" stroke="white" stroke-width="1.5"/>
</svg>
